X:1
T:Claude Goudimel
T:Pseaumes de David (2nd edition, 1580)
T:lyrics: Clément Marot 
T:(1496-1544)
T:Psalmvs XI
T:In Domino confido
%%score [ 1 2 3 4 ]
L:1/8
Q:1/4=180
M:none
K:C
V:1 treble nm="Midi_67"
V:2 treble nm="Midi_67"
V:3 treble-8 nm="Midi_67"
V:4 bass nm="Midi_67"
V:1
 A8 c8 | B8 A4 A4 x4 | B4 c4 d4 c4 | B8 A8 x4 | z8 d8 |"^n.b." ^c8 d8 | A4 c4 B4 A4 | A4 G4 A8 | %8
w: Veu que|du tout en|Dieu mon~ coeur s'ap-|puy- e,|je|m'es- ba-|hi com- ment de|vos- tre mont|
 z8 A8 | A4 G4 F4 F4 | B4 A4 G4 F4 | E8 D8 x4 | z8 F8 | F4 G4 A8 | c8 B4 A4 x8 | B4 c4 d8 | %16
w: Plus-|tost qu'~oi- seau di-|tes que je m'en-|fuy- e.|Vrai|est que l'arc|les ma- lins|ten- du m'ont.|
 z8 A8 x4 | B4 d4 c4 B4 x4 | A4 A4 G4 F4 | G8 F8 x2 | z8 A8 x8 | G4 F4 E8 | E8 D4 C4 | F8 F8 | %24
w: Et|sur la corde ont|as- sis leurs sa-|get- tes,|pour|cont- tre ceux|qui de coeur|jus- tes|
 E8 z8 | A8 G4 A4 | D4 A4 c4 A4 | G4 F4 E8 | D16 |] %29
w: sont,|les des- co-|cher jus- ques en|leurs ca- chet-|tes.|
V:2
 F8 E8 | G8 ^F4 F4 x4 | G4 A4 D4 F4 | G8 C4 D8 | C4 F8 x4 | E8 z4 D4 | F4 E4 G4 E4 | F4 E4 C4 A,4 | %8
w: Veu que|du tout en|Dieu mon coeur s'ap-|puy- e, je|m'es- ba-|hi, *|* * * com-|ment de vos- tre|
w: |||||* je|m'es- ba- hi *||
 D2 C2 D2 E2 F8 | z8 z4 A,4 | D4 D4 B,4 D4 | C4 C4 F4 F4 x4 | E8 D4[K:treble-8] c4 | d4 e4 A4 A4- | %14
w: mont * * * *|Plus-|tost qu' oi- seau|dites que je m'en-|fuy- e. Vrai|est que l'arc les|
w: ||||||
 A4 G8 F4 x8 | G4 A4 D2 E2 F2 G2 | A8[K:treble] z4 E4 x4 | E4 D4 G8 x4 | E8 E4 A,4 | %19
w: * ma- lins|ten- du m'ont , * *|* Et|sur la corde|ont as- sis|
w: |||||
 E4 E4 D2 C2 F6 | ED E4 F4 C8 x6 | D8 C4 B,4 | B,4 A,4 A,4 D4 | D4 C8 x4 | z4 C4 A,4 B,4 | %25
w: leurs fag- et- * *|* * * tes, pour|con- tre ceux|qui de coeur jus-|tes sont,|les de- co-|
w: ||||||
 C4 E8 E4 | F8 E4 F4 | E2 D2 D6 CB, C4 | D16 |] %29
w: cher jus- ques|en leur ca-|chet- * * * * *|tes.|
w: ||||
V:3
 d8 A4 c4 | G2 A2 B2 c2 d4 d8 | f8 c4 d4 | e4 f8 e8 | z4 A4 x8 | A4 A4 B2 A2 B2 c2 | d4 A4 e4 ^c4 | %7
w: Veu que du|tout * * * * en|Dieu mon coeur|s'ap- puy- e,|je|m'es- ba- hi * * *|* com- ment de|
w: |||||||
 d4 B4 A4 D4 | A4 B4 c2 B2 c2 d2 | e4 e4 A4 d4 | G4 ^F4 G4 D4 | z4 A8 d8 | c4 d4 A8 | c8 d4 x4 | %14
w: vos- tre mont. Plus-|tost qu'oi- * * * *|* seau dites que|je m'en fuy- e.|Vrai est|que l'arc les|ma- lins|
w: |||||||
 e4 e4 d8 x8 | z4 e4 f4 d4 | c4 d8 c8 | B4 e4 d4 c8 | c8 x8 | z8 A8 x2 | A4 G4 F4 F4 x8 | %21
w: ten- du m'ont.|Et sur la|cor- de~ont as-|sis leurs fa- get-|tes,|pour|con- tre ceux qui|
w: |||||||
 E4 D4 A4 A4 | ^G8 z8 | A8 A4 A4 | G8 F8 | E4 c4 B4 c4 | A4 F4 G4 c4 | c4 A4 A8 | A16 |] %29
w: de coeur jus- tes|sont,|qui * *||* les des- co-|cher jus- ques en|leurs ca- chet-|tes.|
w: ||* de coeur|jus- tes|sont, * * *||||
V:4
 z8 z4 A,4 | E,4 G,4 D,4 D,4 x4 | G,4 F,4 B,4 A,4 | G,8 F,4 E,2 D,2 x4 | A,8 D,8 | z8 z8 | %6
w: Veu|que deu tout en|Dieu mon ceur s'ap-|puy- * * *|* e,||
 z8 z4 A,,4 | D,4 E,4 F,4 F,4 | D,4 G,4 F,4 F,4 | C,8 D,8 | z16 | z8 D,8 x4 | A,4 A,4 D,4 F,4 | %13
w: plus-|tost qu'oi- seau di-|tes que je m'en-|fuy- e.||Vrai|est que l'arc les|
 F,4 E,4 F,4 D,4 | C,8 z16 | z4 D,4 F,4 F,4 | A,8 G,8 x4 | C,4 G,,4 A,,2 B,,2 C,2 D,2 x4 | %18
w: ma- lins ten- du|m'ont.|Et sur la|corde ont|as- sis leurs * * *|
 E,4 F,4 x8 | C,8 D,8 x2 | C,8 z16 | z4 A,,4 E,4 E,4 | F,8 D,8 | F,4 F,4 x8 | %24
w: fa- get-|tes, *||pour cont- re|ceux qui|de coeur|
 C,2 D,2 E,2 C,2 D,4 D,4 | A,,4 A,,4 E,4 A,,4 | D,4 D,4 C,4 F,,4 | C,4 D,4 A,,8 | D,16 |] %29
w: jus * * * * tes|sont, les de- co-|cher jus- ques en|leurs ca- chet-|tes.|

